packages/foundations/assets/icons/functional/images/file/folder_32.svg

<svg width="32" height="32" viewBox="0 0 32 32" fill="none" xmlns="http://www.w3.org/2000/svg">
<g clip-path="url(#clip0_185_928)">
<path fill-rule="evenodd" clip-rule="evenodd" d="M25.9887 9.00011C27.5272 9.00011 28.9887 10.2222 29.0112 12.0001L28.9887 24.0001C28.9887 25.5978 27.7416 26.9724 25.9887 27.0001H5.98871C4.39103 27.0001 2.98871 25.7232 2.98871 24.0001V8.00011C2.98871 6.40243 4.27922 4.99991 5.98871 4.99991H12.4887C12.7097 4.99991 13.0034 5.09278 13.1958 5.29301L16.9037 9.00011H25.9887ZM4.98871 11.0001V24.0001C4.98871 24.513 5.40709 25.0001 5.98871 25.0001H25.9887C26.5015 25.0001 26.9887 24.5906 26.9887 24.0001V12.0001C26.9887 11.4873 26.582 11.0068 25.9887 11.0068L4.98871 11.0001ZM12.0737 7.00011H5.98871C5.47587 7.00011 4.98871 7.41092 4.98871 8.00011V9.00011H14.0737L12.0737 7.00011Z" fill="#1A1C1F"/>
</g>
<defs>
<clipPath id="clip0_185_928">
<rect width="32" height="32" fill="white"/>
</clipPath>
</defs>
</svg>

<svg xmlns="http://www.w3.org/2000/svg" width="32" height="32" fill="none"><g clip-path="url(#a)"><path fill="#1A1C1F" fill-rule="evenodd" d="M25.989 9c1.538 0 3 1.222 3.022 3l-.022 12c0 1.598-1.247 2.972-3 3h-20c-1.598 0-3-1.277-3-3V8c0-1.598 1.29-3 3-3h6.5c.22 0 .514.093.707.293L16.904 9zm-21 2v13c0 .513.418 1 1 1h20a1 1 0 0 0 1-1V12a.993.993 0 0 0-1-.993zm7.085-4H5.989c-.513 0-1 .41-1 1v1h9.085z" clip-rule="evenodd"/></g><defs><clipPath id="a"><path fill="#fff" d="M0 0h32v32H0z"/></clipPath></defs></svg>
